X:2
T:No.12 The Slver Spire
C:reel
M:4/4
L:1/8
K:D
D2 FE DFAc|dcde fdAF|G2 BG FADF|
FEED EA,CE|D2 FE DFAc|dcde fdAF|
GABG FEDF|[1EDCE D3 A,:|[2EDCE D3 B,||
A,B,CD EFGE|FDEF GAB=c| =cBBA B^cde|
fagf eABc|defd ceac|BddB AFDF|
GABG FEDF|[1EDCE D3 B,:|[2EDCE D4||
